X: 191779
T: Sonny's Limestone Rock
T: Cloch Aoil
S: B.Breathnach:"Ceol Rince na hEireann" IV/166
N: from Sonny Brogan 
Z: B.Black
L: 1/8
M: 4/4
R: reel
K: Ador
B|dBGB ABGB|dBGB A3B|dBGB ABGB|c2 Bc A2 Bc|
dBGB ABGB|dBGB A3B|dBGB ABGB|c2 Bc A3 ||
B/d/|e2 dg e2 dg|e2 dB A2 Bd|e2 de gedB|c2 Bc A2 Bd|
e2 dg e2 dg|e2 dB A2 (3Bcd|eaaf gedB|c2 Bc A3 ||
